!!!COM: Music21
!!!OTL: Pasodoble de Casadelas
!!!OMV: pezas_pasodobles_pasodoble-de-casadelas_pasodoble-de-casadelas-partitura.musicxml
**kern
*I"Bagpipes
*I'Bag
*clefG^2
*k[]
*M2/4
=1
!LO:TX:a:t=Andante
*MM96
!LO:TX:a:t=[quarter]=96
4.r
8gg
=||
8cccL
8ggJ
16eeLL
16dd
16ee
16ddJJ
=
8ccL
8ggJ
8ggL
8ggJ
=
8ggL
16ffL
16eeJJ
8ddL
8ggJ
=
8ddL
8ccJ
8ccL
8ggJ
=
8cccL
8ggJ
16eeLL
16dd
16ee
16ddJJ
=
8ccL
8ggJ
8ggL
8ggJ
=
8ggL
16ffL
16eeJJ
8ddL
8ggJ
!!linebreak:original
=
4.cc
8gg
=||
8cccL
8ggJ
16eeLL
16dd
16ee
16ddJJ
=
8ccL
8ggJ
8ggL
8ggJ
=
8ggL
16ffL
16eeJJ
8ddL
8ggJ
=
8ddL
8ccJ
8ccL
8ggJ
=
8cccL
8ggJ
16eeLL
16dd
16ee
16ddJJ
=
8ccL
8ggJ
8ggL
8ggJ
=
8ggL
16ffL
16eeJJ
8ddL
8ggJ
!!linebreak:original
=
4.cc
8cc
=||
8.ccL
16ddJk
8eeL
8ffJ
=
8ggL
8ddJ
8ccL
8ggJ
=
8ggL
16ffL
16eeJJ
8ddL
8ggJ
=
8ddL
[8ccJ
8ccL]
8ccJ
=
8.ccL
16ddJk
8eeL
8ffJ
=
8ggL
8ddJ
8ccL
8ggJ
!!linebreak:original
=||
8ggL
16ffL
16eeJJ
8ddL
8ggJ
=
4.cc
8cc
=||
8.ccL
16ddJk
8eeL
8ffJ
=
8ggL
8ddJ
8ccL
8ggJ
=
8ggL
16ffL
16eeJJ
8ddL
8ggJ
=
8ddL
[8ccJ
8ccL]
8ccJ
=
8.ccL
16ddJk
8eeL
8ffJ
=
8ggL
8ddJ
8ccL
8ggJ
!!linebreak:original
=||
8ggL
16ffL
16eeJJ
8ddL
8ggJ
=
4.cc
8gg
=||
8ggL
16ffL
16eeJJ
8ddL
8ggJ
=
8ccc
8r
4r
==
*-
